packages/sources/icons/src/vitamix/heart-line.svg

<svg width="16" height="16" viewBox="0 0 16 16" fill="none" xmlns="http://www.w3.org/2000/svg">
<path fill-rule="evenodd" clip-rule="evenodd" d="M14.6667 6C14.6667 3.66667 13.0253 2 11 2C9.76 2 8.66666 2.66667 8 3.33333C7.33333 2.66667 6.24 2 4.99999 2C2.99999 2 1.33333 3.66667 1.33333 6C1.33333 10.4006 5.77944 13.0228 7.68396 14.146C7.79911 14.2139 7.90497 14.2763 8 14.3333C8.09502 14.2763 8.20088 14.2139 8.31603 14.146C10.2206 13.0228 14.6667 10.4006 14.6667 6ZM10.236 11.2687C9.74 11.6633 9.20999 12.032 8.62266 12.4027C8.42333 12.528 8.22599 12.6487 7.99999 12.7833C7.77399 12.6487 7.57666 12.528 7.37733 12.402C6.78999 12.032 6.25999 11.6633 5.76333 11.2687C3.77733 9.68867 2.66666 7.96267 2.66666 6C2.66666 4.43733 3.70666 3.33333 4.99999 3.33333C5.71733 3.33333 6.49333 3.71333 7.05733 4.276L7.99999 5.21867L8.94266 4.276C9.50666 3.71333 10.2827 3.33333 11 3.33333C12.3087 3.33333 13.3333 4.42667 13.3333 6C13.3333 7.962 12.2233 9.68867 10.236 11.2687Z" fill="#001018"/>
</svg>

<svg width="16" height="16" fill="none" xmlns="http://www.w3.org/2000/svg"><path fill-rule="evenodd" clip-rule="evenodd" d="M14.667 6c0-2.333-1.642-4-3.667-4-1.24 0-2.333.667-3 1.333C7.333 2.667 6.24 2 5 2 3 2 1.333 3.667 1.333 6c0 4.4 4.446 7.023 6.351 8.146l.316.187c.095-.057.2-.12.316-.187 1.905-1.123 6.35-3.745 6.35-8.146zm-4.431 5.269a17.99 17.99 0 0 1-1.613 1.134c-.2.125-.397.246-.623.38a26.93 26.93 0 0 1-.623-.381 17.95 17.95 0 0 1-1.614-1.133C3.777 9.689 2.667 7.963 2.667 6c0-1.563 1.04-2.667 2.333-2.667.717 0 1.493.38 2.057.943L8 5.219l.943-.943c.564-.563 1.34-.943 2.057-.943 1.309 0 2.333 1.094 2.333 2.667 0 1.962-1.11 3.689-3.097 5.269z" fill="#001018"/></svg>
